static/img/kroki/86d9f951e1810052ecb7586c90b7eb00.svg

<?xml version="1.0" encoding="us-ascii" standalone="no"?><svg xmlns="http://www.w3.org/2000/svg" xmlns:xlink="http://www.w3.org/1999/xlink" contentStyleType="text/css" height="152px" preserveAspectRatio="none" style="width:403px;height:152px;" version="1.1" viewBox="0 0 403 152" width="403px" zoomAndPan="magnify"><defs/><g><!--class aws_sns_endpoint--><g id="elem_aws_sns_endpoint"><rect codeLine="22" fill="#3D176E" height="39.7891" id="aws_sns_endpoint" rx="2.5" ry="2.5" style="stroke:#000D19;stroke-width:0.5;" width="194" x="7" y="106.79"/><ellipse cx="22" cy="126.6845" fill="#ADD1B2" rx="11" ry="11" style="stroke:#181818;stroke-width:1.0;"/><path d="M24.9688,132.3252 Q24.3906,132.622 23.75,132.7627 Q23.1094,132.9189 22.4063,132.9189 Q19.9063,132.9189 18.5781,131.2783 Q17.2656,129.622 17.2656,126.497 Q17.2656,123.372 18.5781,121.7158 Q19.9063,120.0595 22.4063,120.0595 Q23.1094,120.0595 23.75,120.2158 Q24.4063,120.372 24.9688,120.6689 L24.9688,123.3877 Q24.3438,122.8095 23.75,122.5439 Q23.1563,122.2627 22.5313,122.2627 Q21.1875,122.2627 20.5,123.3408 Q19.8125,124.4033 19.8125,126.497 Q19.8125,128.5908 20.5,129.6689 Q21.1875,130.7314 22.5313,130.7314 Q23.1563,130.7314 23.75,130.4658 Q24.3438,130.1845 24.9688,129.6064 L24.9688,132.3252 Z " fill="#000000"/><text fill="#D9B8FF" font-family="Helvetica" font-size="17" lengthAdjust="spacing" textLength="152" x="41" y="132.5698">aws_sns_endpoint</text></g><!--class aws_sns_platform_application--><g id="elem_aws_sns_platform_application"><rect codeLine="24" fill="#3D176E" height="39.7891" id="aws_sns_platform_application" rx="2.5" ry="2.5" style="stroke:#000D19;stroke-width:0.5;" width="292" x="64" y="7"/><ellipse cx="79" cy="26.8945" fill="#ADD1B2" rx="11" ry="11" style="stroke:#181818;stroke-width:1.0;"/><path d="M81.9688,32.5352 Q81.3906,32.832 80.75,32.9727 Q80.1094,33.1289 79.4063,33.1289 Q76.9063,33.1289 75.5781,31.4883 Q74.2656,29.832 74.2656,26.707 Q74.2656,23.582 75.5781,21.9258 Q76.9063,20.2695 79.4063,20.2695 Q80.1094,20.2695 80.75,20.4258 Q81.4063,20.582 81.9688,20.8789 L81.9688,23.5977 Q81.3438,23.0195 80.75,22.7539 Q80.1563,22.4727 79.5313,22.4727 Q78.1875,22.4727 77.5,23.5508 Q76.8125,24.6133 76.8125,26.707 Q76.8125,28.8008 77.5,29.8789 Q78.1875,30.9414 79.5313,30.9414 Q80.1563,30.9414 80.75,30.6758 Q81.3438,30.3945 81.9688,29.8164 L81.9688,32.5352 Z " fill="#000000"/><text fill="#D9B8FF" font-family="Helvetica" font-size="17" lengthAdjust="spacing" textLength="250" x="98" y="32.7798">aws_sns_platform_application</text></g><!--class aws_sns_topic--><g id="elem_aws_sns_topic"><rect codeLine="26" fill="#3D176E" height="39.7891" id="aws_sns_topic" rx="2.5" ry="2.5" style="stroke:#000D19;stroke-width:0.5;" width="160" x="236" y="106.79"/><ellipse cx="251" cy="126.6845" fill="#ADD1B2" rx="11" ry="11" style="stroke:#181818;stroke-width:1.0;"/><path d="M253.9688,132.3252 Q253.3906,132.622 252.75,132.7627 Q252.1094,132.9189 251.4063,132.9189 Q248.9063,132.9189 247.5781,131.2783 Q246.2656,129.622 246.2656,126.497 Q246.2656,123.372 247.5781,121.7158 Q248.9063,120.0595 251.4063,120.0595 Q252.1094,120.0595 252.75,120.2158 Q253.4063,120.372 253.9688,120.6689 L253.9688,123.3877 Q253.3438,122.8095 252.75,122.5439 Q252.1563,122.2627 251.5313,122.2627 Q250.1875,122.2627 249.5,123.3408 Q248.8125,124.4033 248.8125,126.497 Q248.8125,128.5908 249.5,129.6689 Q250.1875,130.7314 251.5313,130.7314 Q252.1563,130.7314 252.75,130.4658 Q253.3438,130.1845 253.9688,129.6064 L253.9688,132.3252 Z " fill="#000000"/><text fill="#D9B8FF" font-family="Helvetica" font-size="17" lengthAdjust="spacing" textLength="118" x="270" y="132.5698">aws_sns_topic</text></g><!--link aws_sns_platform_application to aws_sns_endpoint--><g id="link_aws_sns_platform_application_aws_sns_endpoint"><path codeLine="28" d="M189.06,47.22 C171.78,63.15 147.22,85.81 128.94,102.68 " fill="none" id="aws_sns_platform_application-to-aws_sns_endpoint" style="stroke:#1A83AF;stroke-width:2.0;"/><polygon fill="#1A83AF" points="125.9,105.41,135.2279,102.2492,129.5757,102.0204,129.8045,96.3682,125.9,105.41" style="stroke:#1A83AF;stroke-width:2.0;"/></g><!--link aws_sns_platform_application to aws_sns_topic--><g id="link_aws_sns_platform_application_aws_sns_topic"><path codeLine="29" d="M230.94,47.22 C248.22,63.15 272.78,85.81 291.06,102.68 " fill="none" id="aws_sns_platform_application-to-aws_sns_topic" style="stroke:#1A83AF;stroke-width:2.0;"/><polygon fill="#1A83AF" points="294.1,105.41,290.1955,96.3682,290.4243,102.0204,284.7721,102.2492,294.1,105.41" style="stroke:#1A83AF;stroke-width:2.0;"/></g><!--SRC=[dP1FQy904CNlVee5puAfjEgba0hINgJKtagHINPMboGxo-nOiQNVlKRRiaty0xtE-ysyzsPbDIgil6nLXLM673gXiCu3GwLIPjfCg2HMNMF038PDSKfEBW8pg53TO_c6OdDe4iyhcnSEGr1NaNG7UR5aMZjzE2yCBkmaT19Han92I4NOPcl1A8mUPoDZccJpQ7UWa-4DjZ1YZVoDzFjzdOoRo4Mhixr_YRbzHvN4JvkHO2jcos9FdKrP4r78Lj4V_MJ6Hz3QkgMwZcPFXqpiaF_CvolGjAbf0sM8RO8W8ydMuwJL2iSZROP7uOTJS5v_Ji4cB88B2tJQatMYFZgV3ScN88QuMe3tvQwPM797C25ly_tyx6BlfPkaeq4wVUtTjjp_iRgt_G80]--></g></svg>

<svg xmlns="http://www.w3.org/2000/svg" width="403" height="152" preserveAspectRatio="none" style="width:403px;height:152px"><rect width="194" height="39.789" x="7" y="106.79" fill="#3D176E" rx="2.5" ry="2.5" style="stroke:#000d19;stroke-width:.5"/><circle cx="22" cy="126.684" r="11" fill="#ADD1B2" style="stroke:#181818;stroke-width:1"/><path d="M24.969 132.325q-.578.297-1.219.438-.64.156-1.344.156-2.5 0-3.828-1.64-1.312-1.657-1.312-4.782t1.312-4.781q1.328-1.656 3.828-1.656.703 0 1.344.156.656.156 1.219.453v2.719q-.625-.579-1.219-.844-.594-.281-1.219-.281-1.343 0-2.031 1.078-.688 1.062-.688 3.156 0 2.094.688 3.172.688 1.062 2.031 1.062.625 0 1.219-.265.594-.281 1.219-.86v2.72Z"/><text x="41" y="132.57" fill="#D9B8FF" font-family="Helvetica" font-size="17" textLength="152">aws_sns_endpoint</text><rect width="292" height="39.789" x="64" y="7" fill="#3D176E" rx="2.5" ry="2.5" style="stroke:#000d19;stroke-width:.5"/><circle cx="79" cy="26.895" r="11" fill="#ADD1B2" style="stroke:#181818;stroke-width:1"/><path d="M81.969 32.535q-.578.297-1.219.438-.64.156-1.344.156-2.5 0-3.828-1.64-1.312-1.657-1.312-4.782t1.312-4.781q1.328-1.656 3.828-1.656.703 0 1.344.156.656.156 1.219.453v2.719q-.625-.578-1.219-.844-.594-.281-1.219-.281-1.344 0-2.031 1.078-.688 1.062-.688 3.156 0 2.094.688 3.172.688 1.062 2.031 1.062.625 0 1.219-.265.594-.281 1.219-.86v2.72Z"/><text x="98" y="32.78" fill="#D9B8FF" font-family="Helvetica" font-size="17" textLength="250">aws_sns_platform_application</text><rect width="160" height="39.789" x="236" y="106.79" fill="#3D176E" rx="2.5" ry="2.5" style="stroke:#000d19;stroke-width:.5"/><circle cx="251" cy="126.684" r="11" fill="#ADD1B2" style="stroke:#181818;stroke-width:1"/><path d="M253.969 132.325q-.578.297-1.219.438-.64.156-1.344.156-2.5 0-3.828-1.64-1.312-1.657-1.312-4.782t1.312-4.781q1.328-1.656 3.828-1.656.703 0 1.344.156.656.156 1.219.453v2.719q-.625-.579-1.219-.844-.594-.281-1.219-.281-1.344 0-2.031 1.078-.688 1.062-.688 3.156 0 2.094.688 3.172.688 1.062 2.031 1.062.625 0 1.219-.265.594-.281 1.219-.86v2.72Z"/><text x="270" y="132.57" fill="#D9B8FF" font-family="Helvetica" font-size="17" textLength="118">aws_sns_topic</text><path fill="none" d="M189.06 47.22c-17.28 15.93-41.84 38.59-60.12 55.46" style="stroke:#1a83af;stroke-width:2"/><path fill="#1A83AF" d="m125.9 105.41 9.328-3.16-5.652-.23.228-5.652-3.904 9.042z" style="stroke:#1a83af;stroke-width:2"/><path fill="none" d="M230.94 47.22c17.28 15.93 41.84 38.59 60.12 55.46" style="stroke:#1a83af;stroke-width:2"/><path fill="#1A83AF" d="m294.1 105.41-3.905-9.042.23 5.652-5.653.23 9.328 3.16z" style="stroke:#1a83af;stroke-width:2"/></svg>
